build/img/svg/inst.svg

<svg width="15" height="14" viewBox="0 0 15 14" fill="none" xmlns="http://www.w3.org/2000/svg">
<path d="M7.49812 4.66567C6.21277 4.66567 5.16384 5.71463 5.16384 7C5.16384 8.28537 6.21277 9.33433 7.49812 9.33433C8.78346 9.33433 9.8324 8.28537 9.8324 7C9.8324 5.71463 8.78346 4.66567 7.49812 4.66567ZM14.4992 7C14.4992 6.03335 14.508 5.07545 14.4537 4.11055C14.3994 2.98979 14.1437 1.99512 13.3242 1.17556C12.5029 0.35426 11.51 0.100338 10.3893 0.0460516C9.42263 -0.00823506 8.46475 0.000520879 7.49987 0.000520879C6.53323 0.000520879 5.57536 -0.00823506 4.61047 0.0460516C3.48973 0.100338 2.49508 0.356011 1.67554 1.17556C0.854253 1.99687 0.600336 2.98979 0.546051 4.11055C0.491765 5.0772 0.500521 6.0351 0.500521 7C0.500521 7.9649 0.491765 8.92455 0.546051 9.88945C0.600336 11.0102 0.856004 12.0049 1.67554 12.8244C2.49683 13.6457 3.48973 13.8997 4.61047 13.9539C5.57711 14.0082 6.53498 13.9995 7.49987 13.9995C8.4665 13.9995 9.42438 14.0082 10.3893 13.9539C11.51 13.8997 12.5047 13.644 13.3242 12.8244C14.1455 12.0031 14.3994 11.0102 14.4537 9.88945C14.5097 8.92455 14.4992 7.96665 14.4992 7ZM7.49812 10.5917C5.51056 10.5917 3.90651 8.98759 3.90651 7C3.90651 5.01241 5.51056 3.40832 7.49812 3.40832C9.48567 3.40832 11.0897 5.01241 11.0897 7C11.0897 8.98759 9.48567 10.5917 7.49812 10.5917ZM11.2368 4.10004C10.7728 4.10004 10.398 3.72529 10.398 3.26122C10.398 2.79716 10.7728 2.42241 11.2368 2.42241C11.7009 2.42241 12.0756 2.79716 12.0756 3.26122C12.0758 3.37142 12.0542 3.48056 12.0121 3.58239C11.97 3.68422 11.9082 3.77675 11.8303 3.85467C11.7523 3.93258 11.6598 3.99437 11.558 4.03647C11.4562 4.07858 11.347 4.10018 11.2368 4.10004Z" fill="white"/>
</svg>

<svg width="15" height="14" viewBox="0 0 15 14" fill="none" xmlns="http://www.w3.org/2000/svg"><path d="M7.498 4.666A2.34 2.34 0 005.164 7a2.34 2.34 0 002.334 2.334A2.34 2.34 0 009.832 7a2.34 2.34 0 00-2.334-2.334zM14.5 7c0-.967.009-1.925-.045-2.89-.055-1.12-.31-2.115-1.13-2.934C12.503.354 11.51.1 10.39.046 9.423-.008 8.465.001 7.5.001 6.534 0 5.576-.01 4.61.046 3.49.1 2.495.356 1.676 1.176.854 1.996.6 2.99.546 4.11.492 5.077.501 6.035.501 7c0 .965-.01 1.925.045 2.89.054 1.12.31 2.115 1.13 2.934.82.822 1.814 1.076 2.934 1.13.967.054 1.925.045 2.89.045.966 0 1.924.01 2.89-.045 1.12-.054 2.115-.31 2.934-1.13.822-.82 1.075-1.814 1.13-2.935.056-.964.045-1.922.045-2.889zm-7 3.592A3.587 3.587 0 013.906 7a3.587 3.587 0 013.591-3.592A3.587 3.587 0 0111.09 7a3.587 3.587 0 01-3.592 3.592zM11.236 4.1a.838.838 0 110-1.678.838.838 0 110 1.678z" fill="#fff"/></svg>
